X:1
T:Title
%%score { 1 | 2 }
L:1/8
M:6/8
K:C
V:1 treble nm="Grand Piano"
V:2 bass 
V:1
 z3 z[Q:1/4=100] C>E | G3 [B,FG][CFA][DFB] | [CEc]3 z C>E | G3 GBc |[M:2/4] d4 |[M:1/4] [Ge]>[Gd] | %6
[M:3/4] [Gc]3 [GB] Ac | G4 G>G | G2 z G GG |[M:2/4] [EG]4 |[M:1/4] [Ge]>[Gd] | %11
[M:3/4] [Gc]3 [GB] Ac | G4 G>G | G2 z G GG |[M:2/4] [EG]4 |] %15
V:2
 z3 z C,>E, | G,3 G,G,G, | C,3 z C,>E, | G,3[K:treble] [G,B,F][G,DF][G,CE] |[M:2/4] [G,B,G]4 | %5
[M:1/4][K:bass] [C,C]>[D,B,] |[M:3/4] [E,C]3 [E,C] [F,CF][K:treble][A,CF] | [CE]4 [G,B,D]>[G,CE] | %8
 [G,DF]3 [G,DF][K:bass] [G,CE][G,B,D] |[M:2/4] [C,C]4 |[M:1/4] [C,C]>[D,B,] | %11
[M:3/4] [E,C]3 [E,C][K:treble] [F,CF][A,CF] | [CE]4 [G,B,D]>[G,CE] | %13
 [G,DF]3 [G,DF][K:bass] [G,CE][G,B,D] |[M:2/4] [C,C]4 |] %15

